X: 193
T: Richmond Cotillion
B: canberra pickers and fiddlers
B: old time tunes update
B: tunes
M:4/4
L:1/8
R: reel
Q: 1/4=250
K:D
V:1 
dB|"D"A2 f2 fgfe|d2 F2 A3 d|"A"c2 B2 A2 B2|ABAG FGFE|
"D"D2 f2 fgfe|d2 F2 A3 d|"A"c2 A2 B2 c2|"D"d4:|
|:"A" efed cdeg| a2 c2 e4|"E"B2 c2 d2 B2|"A" cdcB ABcd|
"A" efed cdeg| a2 c2 e3 a|"E"g2 e2 f2 g2|"A" a4:|
% abcbook-tune_id 67a7d9ec8f73feef9d69c0f4
% abcbook-tune_composer_id 
% abcbook-link-0 https://www.youtube.com/watch?v=2CSx32qtL9E
% abcbook-link-title-0 Richmond Cotillion
% abcbook-boost 0
% abcbook-difficulty 0
% abcbook-tags old time tunes
% abcbook-tablature 
% abcbook-transpose -7
% abcbook-tuning GDAD
% abcbook-lastupdated 1739279198013
% abcbook-src-url 
% abcbook-soundfonts 
% abcbook-repeats 1
%%MIDI transpose -7
% Rhythm Reel
% Titles One title
% Transcriptions Only 1 transcription
% Movement Has lots of stepwise movement
% Movement Has some stepwise movement
% Mode major
% Key A
% Key D
% Time_signature 4/4
% Text Has source text
% Has_accompaniment_chords Has chords

